resources/svg/earthquake-line.svg

<svg fill="currentColor" viewBox="0 0 24 24" xmlns="http://www.w3.org/2000/svg"><path d="M5 21.0001C4.48716 21.0001 4.06449 20.6141 4.00673 20.1167L4 20.0001V11.0001H1L11.3273 1.61162C11.677 1.29377 12.1956 1.26728 12.5734 1.53216L12.6727 1.61162L23 11.0001H20V20.0001C20 20.5129 19.614 20.9356 19.1166 20.9934L19 21.0001H5ZM12 3.7021L6 9.1561V19.0001L10.357 18.9996L11.75 17.5001L8 14.0001L13 11.0001L10.5 9.0001L13.5 6.0001L13 9.0001L15.5 11.0001L11.5 14.0001L15 17.0001L13.75 18.9996L18 19.0001V9.1571L12 3.7021Z"/></svg>

<svg xmlns="http://www.w3.org/2000/svg" viewBox="0 0 24 24" fill="currentColor">
    <g>
        <path fill="none" d="M0 0h24v24H0z"/>
        <path fill-rule="nonzero" d="M5 21a1 1 0 0 1-.993-.883L4 20v-9H1l10.327-9.388a1 1 0 0 1 1.246-.08l.1.08L23 11h-3v9a1 1 0 0 1-.883.993L19 21H5zm7-17.298L6 9.156V19h4.357l1.393-1.5L8 14l5-3-2.5-2 3-3-.5 3 2.5 2-4 3 3.5 3-1.25 2H18V9.157l-6-5.455z"/>
    </g>
</svg>
